flaticon/medical/records-2.svg

<svg xmlns="http://www.w3.org/2000/svg" width="32" height="32" viewBox="0 0 24 24">
    <path d="M 0 1.199219 L 0 22.800781 L 24 22.800781 L 24 1.199219 Z M 23.199219 22 L 0.800781 22 L 0.800781 2 L 23.199219 2 Z M 23.199219 22"/>
    <path d="M2.398438 4L4 4C4.222656 4 4.398438 3.820312 4.398438 3.601562 4.398438 3.378906 4.222656 3.199219 4 3.199219L2.398438 3.199219C2.179688 3.199219 2 3.378906 2 3.601562 2 3.820312 2.179688 4 2.398438 4zM2.398438 5.601562L5.601562 5.601562C5.820312 5.601562 6 5.421875 6 5.199219 6 4.980469 5.820312 4.800781 5.601562 4.800781L2.398438 4.800781C2.179688 4.800781 2 4.980469 2 5.199219 2 5.421875 2.179688 5.601562 2.398438 5.601562zM20.398438 4L22 4C22.222656 4 22.398438 3.820312 22.398438 3.601562 22.398438 3.378906 22.222656 3.199219 22 3.199219L20.398438 3.199219C20.179688 3.199219 20 3.378906 20 3.601562 20 3.820312 20.179688 4 20.398438 4zM18.800781 5.601562L22 5.601562C22.222656 5.601562 22.398438 5.421875 22.398438 5.199219 22.398438 4.980469 22.222656 4.800781 22 4.800781L18.800781 4.800781C18.578125 4.800781 18.398438 4.980469 18.398438 5.199219 18.398438 5.421875 18.578125 5.601562 18.800781 5.601562zM22 6.398438L20.398438 6.398438C20.179688 6.398438 20 6.578125 20 6.800781 20 7.019531 20.179688 7.199219 20.398438 7.199219L22 7.199219C22.222656 7.199219 22.398438 7.019531 22.398438 6.800781 22.398438 6.578125 22.222656 6.398438 22 6.398438zM17.601562 18.800781C17.601562 19.019531 17.777344 19.199219 18 19.199219L18.398438 19.199219C18.621094 19.199219 18.800781 19.019531 18.800781 18.800781 18.800781 18.578125 18.621094 18.398438 18.398438 18.398438L18 18.398438C17.777344 18.398438 17.601562 18.578125 17.601562 18.800781zM20 18.398438L19.601562 18.398438C19.378906 18.398438 19.199219 18.578125 19.199219 18.800781 19.199219 19.019531 19.378906 19.199219 19.601562 19.199219L20 19.199219C20.222656 19.199219 20.398438 19.019531 20.398438 18.800781 20.398438 18.578125 20.222656 18.398438 20 18.398438zM21.601562 18.398438L21.199219 18.398438C20.980469 18.398438 20.800781 18.578125 20.800781 18.800781 20.800781 19.019531 20.980469 19.199219 21.199219 19.199219L21.601562 19.199219C21.820312 19.199219 22 19.019531 22 18.800781 22 18.578125 21.820312 18.398438 21.601562 18.398438zM19.601562 20L18 20C17.777344 20 17.601562 20.179688 17.601562 20.398438 17.601562 20.621094 17.777344 20.800781 18 20.800781L19.601562 20.800781C19.820312 20.800781 20 20.621094 20 20.398438 20 20.179688 19.820312 20 19.601562 20zM21.316406 20.117188C21.242188 20.191406 21.199219 20.292969 21.199219 20.398438 21.199219 20.507812 21.242188 20.609375 21.316406 20.683594 21.390625 20.757812 21.496094 20.800781 21.601562 20.800781 21.703125 20.800781 21.808594 20.757812 21.882812 20.683594 21.957031 20.609375 22 20.503906 22 20.398438 22 20.296875 21.957031 20.191406 21.882812 20.117188 21.734375 19.96875 21.464844 19.96875 21.316406 20.117188zM5.601562 20.398438L5.199219 20.398438C4.980469 20.398438 4.800781 20.578125 4.800781 20.800781 4.800781 21.019531 4.980469 21.199219 5.199219 21.199219L5.601562 21.199219C5.820312 21.199219 6 21.019531 6 20.800781 6 20.578125 5.820312 20.398438 5.601562 20.398438zM4 20.398438L3.601562 20.398438C3.378906 20.398438 3.199219 20.578125 3.199219 20.800781 3.199219 21.019531 3.378906 21.199219 3.601562 21.199219L4 21.199219C4.222656 21.199219 4.398438 21.019531 4.398438 20.800781 4.398438 20.578125 4.222656 20.398438 4 20.398438zM2 21.199219L2.398438 21.199219C2.621094 21.199219 2.800781 21.019531 2.800781 20.800781 2.800781 20.578125 2.621094 20.398438 2.398438 20.398438L2 20.398438C1.777344 20.398438 1.601562 20.578125 1.601562 20.800781 1.601562 21.019531 1.777344 21.199219 2 21.199219zM5.601562 18.800781L5.199219 18.800781C4.980469 18.800781 4.800781 18.980469 4.800781 19.199219 4.800781 19.421875 4.980469 19.601562 5.199219 19.601562L5.601562 19.601562C5.820312 19.601562 6 19.421875 6 19.199219 6 18.980469 5.820312 18.800781 5.601562 18.800781zM4 18.800781L3.601562 18.800781C3.378906 18.800781 3.199219 18.980469 3.199219 19.199219 3.199219 19.421875 3.378906 19.601562 3.601562 19.601562L4 19.601562C4.222656 19.601562 4.398438 19.421875 4.398438 19.199219 4.398438 18.980469 4.222656 18.800781 4 18.800781zM2 19.601562L2.398438 19.601562C2.621094 19.601562 2.800781 19.421875 2.800781 19.199219 2.800781 18.980469 2.621094 18.800781 2.398438 18.800781L2 18.800781C1.777344 18.800781 1.601562 18.980469 1.601562 19.199219 1.601562 19.421875 1.777344 19.601562 2 19.601562zM6 11.003906L6 14.839844C6 16.800781 7.597656 18.398438 9.5625 18.398438L14.4375 18.398438C16.402344 18.398438 18 16.800781 18 14.839844L18 11.003906C18 10.484375 17.644531 10.046875 17.164062 9.917969 17.261719 9.066406 17.257812 8.210938 17.046875 7.410156 16.875 6.761719 16.382812 6.152344 15.65625 5.683594 14.761719 5.109375 13.5 5.039062 12.367188 5.507812L12.285156 5.542969C12.195312 5.574219 12.121094 5.601562 12.0625 5.625 12.019531 5.644531 11.988281 5.660156 11.964844 5.664062 11.929688 5.664062 11.789062 5.621094 11.726562 5.601562 10.859375 5.347656 9.753906 5.09375 8.878906 5.402344 7.230469 5.988281 6.726562 7.796875 6.957031 9.335938L7.039062 9.886719C6.460938 9.929688 6 10.410156 6 11.003906zM9.144531 6.15625C9.339844 6.089844 9.5625 6.0625 9.796875 6.0625 10.367188 6.0625 11.011719 6.226562 11.5 6.371094 11.921875 6.496094 12.035156 6.496094 12.355469 6.371094 12.40625 6.351562 12.46875 6.328125 12.546875 6.300781 12.582031 6.289062 12.613281 6.273438 12.671875 6.25 13.566406 5.878906 14.546875 5.921875 15.222656 6.355469 15.78125 6.714844 16.152344 7.160156 16.273438 7.617188 16.660156 9.085938 16.234375 10.867188 15.855469 12.4375 15.785156 12.730469 15.714844 13.019531 15.652344 13.296875L15.597656 13.546875C15.441406 14.25 15.296875 14.914062 14.960938 15.5 14.90625 15.601562 14.859375 15.65625 14.832031 15.6875 14.753906 15.609375 14.578125 15.367188 14.332031 14.609375 14.28125 14.449219 14.238281 14.28125 14.191406 14.113281 14.011719 13.410156 13.804688 12.617188 13.0625 12.175781 12.222656 11.675781 11.285156 11.972656 10.617188 12.949219 10.265625 13.464844 10.078125 14.023438 9.890625 14.5625 9.824219 14.765625 9.753906 14.972656 9.675781 15.171875 9.585938 15.402344 9.503906 15.585938 9.382812 15.695312 9.292969 15.597656 9.175781 15.371094 9.03125 15.023438L9.007812 14.964844C8.363281 13.40625 8.105469 11.644531 7.855469 9.941406L7.75 9.214844C7.570312 8.003906 7.929688 6.589844 9.144531 6.15625zM6.800781 11.003906C6.800781 10.824219 6.945312 10.675781 7.128906 10.675781L7.15625 10.675781C7.390625 12.230469 7.664062 13.816406 8.269531 15.269531L8.289062 15.328125C8.476562 15.78125 8.789062 16.542969 9.414062 16.542969L9.496094 16.542969 9.574219 16.511719C10.097656 16.289062 10.292969 15.792969 10.421875 15.464844 10.503906 15.25 10.578125 15.035156 10.652344 14.820312 10.824219 14.308594 10.988281 13.824219 11.277344 13.402344 11.523438 13.042969 12.03125 12.492188 12.652344 12.863281 13.113281 13.136719 13.261719 13.710938 13.417969 14.3125 13.46875 14.5 13.515625 14.683594 13.570312 14.855469 13.839844 15.679688 14.167969 16.445312 14.765625 16.507812 15.113281 16.542969 15.40625 16.335938 15.65625 15.898438 16.050781 15.207031 16.21875 14.453125 16.378906 13.722656L16.433594 13.472656C16.496094 13.199219 16.5625 12.914062 16.632812 12.625 16.777344 12.019531 16.933594 11.378906 17.046875 10.734375 17.136719 10.792969 17.199219 10.886719 17.199219 11.003906L17.199219 14.839844C17.199219 16.359375 15.960938 17.601562 14.4375 17.601562L9.5625 17.601562C8.039062 17.601562 6.800781 16.359375 6.800781 14.839844zM6.800781 11.003906"/>
</svg>

<svg xmlns="http://www.w3.org/2000/svg" width="32" height="32" viewBox="0 0 24 24">
    <path d="M0 1.2v21.6h24V1.2zM23.2 22H.8V2h22.4zm0 0"/>
    <path d="M2.398 4H4c.223 0 .398-.18.398-.398A.398.398 0 0 0 4 3.199H2.398a.401.401 0 0 0 0 .801zm0 0M2.398 5.602h3.204a.401.401 0 0 0 0-.801H2.398a.4.4 0 0 0 0 .8zm0 0M20.398 4H22c.223 0 .398-.18.398-.398A.398.398 0 0 0 22 3.199h-1.602a.401.401 0 0 0 0 .801zm0 0M18.8 5.602H22c.223 0 .398-.18.398-.403A.398.398 0 0 0 22 4.801h-3.2a.401.401 0 1 0 0 .8zm0 0M22 6.398h-1.602a.401.401 0 0 0 0 .801H22c.223 0 .398-.18.398-.398A.398.398 0 0 0 22 6.398zm0 0M17.602 18.8c0 .22.175.4.398.4h.398a.401.401 0 1 0 0-.802H18a.398.398 0 0 0-.398.403zm0 0M20 18.398h-.398a.401.401 0 0 0 0 .8L20 19.2c.223 0 .398-.18.398-.398a.398.398 0 0 0-.398-.403zm0 0M21.602 18.398h-.403a.401.401 0 0 0 0 .801h.403a.4.4 0 0 0 0-.8zm0 0M19.602 20H18a.398.398 0 0 0-.398.398c0 .223.175.403.398.403h1.602a.401.401 0 0 0 0-.801zm0 0M21.316 20.117a.4.4 0 0 0 .286.684.406.406 0 0 0 .28-.117.409.409 0 0 0 .118-.286.406.406 0 0 0-.117-.28.416.416 0 0 0-.567 0zm0 0M5.602 20.398h-.403a.401.401 0 0 0 0 .801h.403a.4.4 0 0 0 0-.8zm0 0M4 20.398h-.398a.401.401 0 0 0 0 .8L4 21.2c.223 0 .398-.18.398-.398A.398.398 0 0 0 4 20.398zm0 0M2 21.2h.398a.401.401 0 1 0 0-.802H2a.398.398 0 0 0-.398.403c0 .219.175.398.398.398zm0 0M5.602 18.8h-.403a.4.4 0 0 0 0 .802h.403a.401.401 0 0 0 0-.801zm0 0M4 18.8h-.398a.401.401 0 1 0 0 .802H4c.223 0 .398-.18.398-.403A.398.398 0 0 0 4 18.801zm0 0M2 19.602h.398a.401.401 0 0 0 0-.8L2 18.8a.398.398 0 0 0-.398.398c0 .223.175.403.398.403zm0 0M6 11.004v3.836a3.565 3.565 0 0 0 3.563 3.558h4.874A3.565 3.565 0 0 0 18 14.84v-3.836c0-.52-.355-.957-.836-1.086.098-.852.094-1.707-.117-2.508-.172-.648-.664-1.258-1.39-1.726-.895-.575-2.157-.645-3.29-.176l-.082.035a5.35 5.35 0 0 0-.223.082c-.042.02-.074.035-.097.04-.035 0-.176-.044-.238-.063-.868-.254-1.973-.508-2.848-.2-1.649.586-2.152 2.395-1.922 3.934l.082.55A1.121 1.121 0 0 0 6 11.005zm3.145-4.848c.195-.066.418-.093.652-.093.57 0 1.215.164 1.703.308.422.125.535.125.855 0 .051-.02.114-.043.192-.07.035-.012.066-.028.125-.051.894-.371 1.875-.328 2.55.105.56.36.93.805 1.051 1.262.387 1.469-.039 3.25-.418 4.82-.07.293-.14.583-.203.86l-.054.25c-.157.703-.301 1.367-.637 1.953a.943.943 0 0 1-.129.188c-.078-.079-.254-.32-.5-1.079-.05-.16-.094-.328-.14-.496-.18-.703-.387-1.496-1.13-1.937-.84-.5-1.777-.203-2.445.773-.351.516-.539 1.074-.726 1.614-.067.203-.137.41-.215.609-.09.23-.172.414-.293.523-.09-.097-.207-.324-.352-.672l-.023-.058c-.645-1.559-.903-3.32-1.153-5.024l-.105-.726c-.18-1.211.18-2.625 1.395-3.059zM6.8 11.004c0-.18.144-.328.328-.328h.027c.235 1.554.508 3.14 1.114 4.594l.02.058c.187.453.5 1.215 1.124 1.215h.082l.078-.031c.524-.223.719-.719.848-1.047.082-.215.156-.43.23-.645.172-.511.336-.996.625-1.418.246-.359.754-.91 1.375-.539.461.274.61.848.766 1.45.05.187.098.37.152.542.27.825.598 1.59 1.196 1.653.347.035.64-.172.89-.61.395-.691.563-1.445.723-2.175l.055-.25c.062-.274.128-.559.199-.848.144-.605.3-1.246.414-1.89.09.058.152.152.152.269v3.836a2.767 2.767 0 0 1-2.762 2.762H9.564A2.767 2.767 0 0 1 6.8 14.84zm0 0"/>
</svg>
